; generated by Slic3r 1.36.2-prusa3d-stable-win64 on 2018-02-14 at 14:12:46

; 

; external perimeters extrusion width = 0.45mm
; perimeters extrusion width = 0.45mm
; infill extrusion width = 0.45mm
; solid infill extrusion width = 0.45mm
; top infill extrusion width = 0.40mm
; first layer extrusion width = 0.42mm

M107
M115 U3.0.12 ; tell printer latest fw version
M83  ; extruder relative mode
M104 S215 ; set extruder temp
M140 S55 ; set bed temp
M190 S55 ; wait for bed temp
M109 S215 ; wait for extruder temp
G28 W ; home all without mesh bed level
G80 ; mesh bed leveling
G1 Y-3.0 F1000.0 ; go outside pritn area
G1 X60.0 E9.0  F1000.0 ; intro line
G1 X100.0 E12.5  F1000.0 ; intro line
; Filament gcode

G21 ; set units to millimeters
G90 ; use absolute coordinates
M83 ; use relative distances for extrusion
G1 E-0.80000 F2100.00000
G1 Z0.200 F7200.000
G1 X55.624 Y54.548 F7200.000
G1 E0.80000 F2100.00000
M204 S1000
G1 F2100
G1 X56.416 Y54.409 E0.02417
G1 X190.972 Y54.409 E4.04743
G1 X191.871 Y54.587 E0.02755
G1 X192.638 Y55.094 E0.02767
G1 X193.155 Y55.855 E0.02767
G1 X193.345 Y56.754 E0.02767
G1 X193.345 Y164.247 E3.23336
G1 X193.284 Y164.764 E0.01567
G1 X193.112 Y165.256 E0.01567
G1 X192.836 Y165.698 E0.01567
G1 X192.472 Y166.069 E0.01567
G1 X191.769 Y166.466 E0.02429
G1 X190.977 Y166.605 E0.02417
G1 X56.421 Y166.605 E4.04743
G1 X55.899 Y166.546 E0.01578
G1 X55.404 Y166.375 E0.01578
G1 X54.958 Y166.099 E0.01578
G1 X54.583 Y165.731 E0.01578
G1 X54.187 Y165.032 E0.02417
G1 X54.047 Y164.241 E0.02417
G1 X54.047 Y56.778 E3.23244
G1 X54.107 Y56.257 E0.01578
G1 X54.278 Y55.765 E0.01567
G1 X54.554 Y55.319 E0.01578
G1 X54.921 Y54.945 E0.01578
G1 X55.572 Y54.577 E0.02248
G1 F5760
G1 X56.416 Y54.409 E-0.29801
G1 F5760
G1 X57.750 Y54.409 E-0.46199
G1 E-0.04000 F2100.00000
G1 X57.012 Y57.373 F7200.000
G1 E0.80000 F2100.00000
G1 F1680
G1 X190.381 Y57.373 E4.01174
G1 X190.381 Y163.641 E3.19652
G1 X57.012 Y163.641 E4.01174
G1 X57.012 Y57.433 E3.19472
G1 X56.634 Y56.996 F7200.000
G1 F1260
G1 X190.758 Y56.996 E4.03442
G1 X190.758 Y164.018 E3.21921
G1 X56.634 Y164.018 E4.03442
G1 X56.634 Y57.056 E3.21740
G1 X57.024 Y57.085 F7200.000
G1 F5760
G1 X58.829 Y57.055 E-0.76000
G1 E-0.04000 F2100.00000
G1 X57.889 Y163.528 F7200.000
G1 E0.80000 F2100.00000
G1 F1680
G1 X57.294 Y162.934 E0.02532
G1 X57.294 Y162.400 E0.01609
G1 X58.253 Y163.358 E0.04084
G1 X58.787 Y163.358 E0.01609
G1 X57.294 Y161.865 E0.06360
G1 X57.294 Y161.331 E0.01609
G1 X59.321 Y163.358 E0.08635
G1 X59.855 Y163.358 E0.01609
G1 X57.294 Y160.797 E0.10910
G1 X57.294 Y160.263 E0.01609
G1 X60.389 Y163.358 E0.13186
G1 X60.923 Y163.358 E0.01609
G1 X57.294 Y159.729 E0.15461
G1 X57.294 Y159.195 E0.01609
G1 X61.457 Y163.358 E0.17737
G1 X61.991 Y163.358 E0.01609
G1 X57.294 Y158.661 E0.20012
G1 X57.294 Y158.127 E0.01609
G1 X62.525 Y163.358 E0.22287
G1 X63.060 Y163.358 E0.01609
G1 X57.294 Y157.593 E0.24563
G1 X57.294 Y157.059 E0.01609
G1 X63.594 Y163.358 E0.26838
G1 X64.128 Y163.358 E0.01609
G1 X57.294 Y156.525 E0.29113
G1 X57.294 Y155.991 E0.01609
G1 X64.662 Y163.358 E0.31389
G1 X65.196 Y163.358 E0.01609
G1 X57.294 Y155.457 E0.33664
G1 X57.294 Y154.923 E0.01609
G1 X65.730 Y163.358 E0.35940
G1 X66.264 Y163.358 E0.01609
G1 X57.294 Y154.389 E0.38215
G1 X57.294 Y153.855 E0.01609
G1 X66.798 Y163.358 E0.40490
G1 X67.332 Y163.358 E0.01609
G1 X57.294 Y153.320 E0.42766
G1 X57.294 Y152.786 E0.01609
G1 X67.866 Y163.358 E0.45041
G1 X68.400 Y163.358 E0.01609
G1 X57.294 Y152.252 E0.47316
G1 X57.294 Y151.718 E0.01609
G1 X68.934 Y163.358 E0.49592
G1 X69.468 Y163.358 E0.01609
G1 X57.294 Y151.184 E0.51867
G1 X57.294 Y150.650 E0.01609
G1 X70.002 Y163.358 E0.54143
G1 X70.536 Y163.358 E0.01609
G1 X57.294 Y150.116 E0.56418
G1 X57.294 Y149.582 E0.01609
G1 X71.070 Y163.358 E0.58693
G1 X71.605 Y163.358 E0.01609
G1 X57.294 Y149.048 E0.60969
G1 X57.294 Y148.514 E0.01609
G1 X72.139 Y163.358 E0.63244
G1 X72.673 Y163.358 E0.01609
G1 X57.294 Y147.980 E0.65519
G1 X57.294 Y147.446 E0.01609
G1 X73.207 Y163.358 E0.67795
G1 X73.741 Y163.358 E0.01609
G1 X57.294 Y146.912 E0.70070
G1 X57.294 Y146.378 E0.01609
G1 X74.275 Y163.358 E0.72346
G1 X74.809 Y163.358 E0.01609
G1 X57.294 Y145.844 E0.74621
G1 X57.294 Y145.310 E0.01609
G1 X75.343 Y163.358 E0.76896
G1 X75.877 Y163.358 E0.01609
G1 X57.294 Y144.775 E0.79172
G1 X57.294 Y144.241 E0.01609
G1 X76.411 Y163.358 E0.81447
G1 X76.945 Y163.358 E0.01609
G1 X57.294 Y143.707 E0.83722
G1 X57.294 Y143.173 E0.01609
G1 X77.479 Y163.358 E0.85998
G1 X78.013 Y163.358 E0.01609
G1 X57.294 Y142.639 E0.88273
G1 X57.294 Y142.105 E0.01609
G1 X78.547 Y163.358 E0.90549
G1 X79.081 Y163.358 E0.01609
G1 X57.294 Y141.571 E0.92824
G1 X57.294 Y141.037 E0.01609
G1 X79.615 Y163.358 E0.95099
G1 X80.150 Y163.358 E0.01609
G1 X57.294 Y140.503 E0.97375
G1 X57.294 Y139.969 E0.01609
G1 X80.684 Y163.358 E0.99650
G1 X81.218 Y163.358 E0.01609
G1 X57.294 Y139.435 E1.01925
G1 X57.294 Y138.901 E0.01609
G1 X81.752 Y163.358 E1.04201
G1 X82.286 Y163.358 E0.01609
G1 X57.294 Y138.367 E1.06476
G1 X57.294 Y137.833 E0.01609
G1 X82.820 Y163.358 E1.08752
G1 X83.354 Y163.358 E0.01609
G1 X57.294 Y137.299 E1.11027
G1 X57.294 Y136.765 E0.01609
G1 X83.888 Y163.358 E1.13302
G1 X84.422 Y163.358 E0.01609
G1 X57.294 Y136.230 E1.15578
G1 X57.294 Y135.696 E0.01609
G1 X84.956 Y163.358 E1.17853
G1 X85.490 Y163.358 E0.01609
G1 X57.294 Y135.162 E1.20129
G1 X57.294 Y134.628 E0.01609
G1 X86.024 Y163.358 E1.22404
G1 X86.558 Y163.358 E0.01609
G1 X57.294 Y134.094 E1.24679
G1 X57.294 Y133.560 E0.01609
G1 X87.092 Y163.358 E1.26955
G1 X87.626 Y163.358 E0.01609
G1 X57.294 Y133.026 E1.29230
G1 X57.294 Y132.492 E0.01609
G1 X88.160 Y163.358 E1.31505
G1 X88.695 Y163.358 E0.01609
G1 X57.294 Y131.958 E1.33781
G1 X57.294 Y131.424 E0.01609
G1 X89.229 Y163.358 E1.36056
G1 X89.763 Y163.358 E0.01609
G1 X57.294 Y130.890 E1.38332
G1 X57.294 Y130.356 E0.01609
G1 X90.297 Y163.358 E1.40607
G1 X90.831 Y163.358 E0.01609
G1 X57.294 Y129.822 E1.42882
G1 X57.294 Y129.288 E0.01609
G1 X91.365 Y163.358 E1.45158
G1 X91.899 Y163.358 E0.01609
G1 X57.294 Y128.754 E1.47433
G1 X57.294 Y128.220 E0.01609
G1 X92.433 Y163.358 E1.49708
G1 X92.967 Y163.358 E0.01609
G1 X57.294 Y127.685 E1.51984
G1 X57.294 Y127.151 E0.01609
G1 X93.501 Y163.358 E1.54259
G1 X94.035 Y163.358 E0.01609
G1 X57.294 Y126.617 E1.56535
G1 X57.294 Y126.083 E0.01609
G1 X94.569 Y163.358 E1.58810
G1 X95.103 Y163.358 E0.01609
G1 X57.294 Y125.549 E1.61085
G1 X57.294 Y125.015 E0.01609
G1 X95.637 Y163.358 E1.63361
G1 X96.171 Y163.358 E0.01609
G1 X57.294 Y124.481 E1.65636
G1 X57.294 Y123.947 E0.01609
G1 X96.705 Y163.358 E1.67911
G1 X97.240 Y163.358 E0.01609
G1 X57.294 Y123.413 E1.70187
G1 X57.294 Y122.879 E0.01609
G1 X97.774 Y163.358 E1.72462
G1 X98.308 Y163.358 E0.01609
G1 X57.294 Y122.345 E1.74738
G1 X57.294 Y121.811 E0.01609
G1 X98.842 Y163.358 E1.77013
G1 X99.376 Y163.358 E0.01609
G1 X57.294 Y121.277 E1.79288
G1 X57.294 Y120.743 E0.01609
G1 X99.910 Y163.358 E1.81564
G1 X100.444 Y163.358 E0.01609
G1 X57.294 Y120.209 E1.83839
G1 X57.294 Y119.675 E0.01609
G1 X100.978 Y163.358 E1.86114
G1 X101.512 Y163.358 E0.01609
G1 X57.294 Y119.140 E1.88390
G1 X57.294 Y118.606 E0.01609
G1 X102.046 Y163.358 E1.90665
G1 X102.580 Y163.358 E0.01609
G1 X57.294 Y118.072 E1.92941
G1 X57.294 Y117.538 E0.01609
G1 X103.114 Y163.358 E1.95216
G1 X103.648 Y163.358 E0.01609
G1 X57.294 Y117.004 E1.97491
G1 X57.294 Y116.470 E0.01609
G1 X104.182 Y163.358 E1.99767
G1 X104.716 Y163.358 E0.01609
G1 X57.294 Y115.936 E2.02042
G1 X57.294 Y115.402 E0.01609
G1 X105.250 Y163.358 E2.04317
G1 X105.784 Y163.358 E0.01609
G1 X57.294 Y114.868 E2.06593
G1 X57.294 Y114.334 E0.01609
G1 X106.319 Y163.358 E2.08868
G1 X106.853 Y163.358 E0.01609
G1 X57.294 Y113.800 E2.11144
G1 X57.294 Y113.266 E0.01609
G1 X107.387 Y163.358 E2.13419
G1 X107.921 Y163.358 E0.01609
G1 X57.294 Y112.732 E2.15694
G1 X57.294 Y112.198 E0.01609
G1 X108.455 Y163.358 E2.17970
G1 X108.989 Y163.358 E0.01609
G1 X57.294 Y111.664 E2.20245
G1 X57.294 Y111.130 E0.01609
G1 X109.523 Y163.358 E2.22521
G1 X110.057 Y163.358 E0.01609
G1 X57.294 Y110.595 E2.24796
G1 X57.294 Y110.061 E0.01609
G1 X110.591 Y163.358 E2.27071
G1 X111.125 Y163.358 E0.01609
G1 X57.294 Y109.527 E2.29347
G1 X57.294 Y108.993 E0.01609
G1 X111.659 Y163.358 E2.31622
G1 X112.193 Y163.358 E0.01609
G1 X57.294 Y108.459 E2.33897
G1 X57.294 Y107.925 E0.01609
G1 X112.727 Y163.358 E2.36173
G1 X113.261 Y163.358 E0.01609
G1 X57.294 Y107.391 E2.38448
G1 X57.294 Y106.857 E0.01609
G1 X113.795 Y163.358 E2.40724
G1 X114.329 Y163.358 E0.01609
G1 X57.294 Y106.323 E2.42999
G1 X57.294 Y105.789 E0.01609
G1 X114.864 Y163.358 E2.45274
G1 X115.398 Y163.358 E0.01609
G1 X57.294 Y105.255 E2.47550
G1 X57.294 Y104.721 E0.01609
G1 X115.932 Y163.358 E2.49825
G1 X116.466 Y163.358 E0.01609
G1 X57.294 Y104.187 E2.52100
G1 X57.294 Y103.653 E0.01609
G1 X117.000 Y163.358 E2.54376
G1 X117.534 Y163.358 E0.01609
G1 X57.294 Y103.119 E2.56651
G1 X57.294 Y102.585 E0.01609
G1 X118.068 Y163.358 E2.58927
G1 X118.602 Y163.358 E0.01609
G1 X57.294 Y102.050 E2.61202
G1 X57.294 Y101.516 E0.01609
G1 X119.136 Y163.358 E2.63477
G1 X119.670 Y163.358 E0.01609
G1 X57.294 Y100.982 E2.65753
G1 X57.294 Y100.448 E0.01609
G1 X120.204 Y163.358 E2.68028
G1 X120.738 Y163.358 E0.01609
G1 X57.294 Y99.914 E2.70303
G1 X57.294 Y99.380 E0.01609
G1 X121.272 Y163.358 E2.72579
G1 X121.806 Y163.358 E0.01609
G1 X57.294 Y98.846 E2.74854
G1 X57.294 Y98.312 E0.01609
G1 X122.340 Y163.358 E2.77130
G1 X122.874 Y163.358 E0.01609
G1 X57.294 Y97.778 E2.79405
G1 X57.294 Y97.244 E0.01609
G1 X123.409 Y163.358 E2.81680
G1 X123.943 Y163.358 E0.01609
G1 X57.294 Y96.710 E2.83956
G1 X57.294 Y96.176 E0.01609
G1 X124.477 Y163.358 E2.86231
G1 X125.011 Y163.358 E0.01609
G1 X57.294 Y95.642 E2.88506
G1 X57.294 Y95.108 E0.01609
G1 X125.545 Y163.358 E2.90782
G1 X126.079 Y163.358 E0.01609
G1 X57.294 Y94.574 E2.93057
G1 X57.294 Y94.040 E0.01609
G1 X126.613 Y163.358 E2.95333
G1 X127.147 Y163.358 E0.01609
G1 X57.294 Y93.505 E2.97608
G1 X57.294 Y92.971 E0.01609
G1 X127.681 Y163.358 E2.99883
G1 X128.215 Y163.358 E0.01609
G1 X57.294 Y92.437 E3.02159
G1 X57.294 Y91.903 E0.01609
G1 X128.749 Y163.358 E3.04434
G1 X129.283 Y163.358 E0.01609
G1 X57.294 Y91.369 E3.06710
G1 X57.294 Y90.835 E0.01609
G1 X129.817 Y163.358 E3.08985
G1 X130.351 Y163.358 E0.01609
G1 X57.294 Y90.301 E3.11260
G1 X57.294 Y89.767 E0.01609
G1 X130.885 Y163.358 E3.13536
G1 X131.419 Y163.358 E0.01609
G1 X57.294 Y89.233 E3.15811
G1 X57.294 Y88.699 E0.01609
G1 X131.954 Y163.358 E3.18086
G1 X132.488 Y163.358 E0.01609
G1 X57.294 Y88.165 E3.20362
G1 X57.294 Y87.631 E0.01609
G1 X133.022 Y163.358 E3.22637
G1 X133.556 Y163.358 E0.01609
G1 X57.294 Y87.097 E3.24913
G1 X57.294 Y86.563 E0.01609
G1 X134.090 Y163.358 E3.27188
G1 X134.624 Y163.358 E0.01609
G1 X57.294 Y86.029 E3.29463
G1 X57.294 Y85.495 E0.01609
G1 X135.158 Y163.358 E3.31739
G1 X135.692 Y163.358 E0.01609
G1 X57.294 Y84.961 E3.34014
G1 X57.294 Y84.426 E0.01609
G1 X136.226 Y163.358 E3.36289
G1 X136.760 Y163.358 E0.01609
G1 X57.294 Y83.892 E3.38565
G1 X57.294 Y83.358 E0.01609
G1 X137.294 Y163.358 E3.40840
G1 X137.828 Y163.358 E0.01609
G1 X57.294 Y82.824 E3.43116
G1 X57.294 Y82.290 E0.01609
G1 X138.362 Y163.358 E3.45391
G1 X138.896 Y163.358 E0.01609
G1 X57.294 Y81.756 E3.47666
G1 X57.294 Y81.222 E0.01609
G1 X139.430 Y163.358 E3.49942
G1 X139.964 Y163.358 E0.01609
G1 X57.294 Y80.688 E3.52217
G1 X57.294 Y80.154 E0.01609
G1 X140.499 Y163.358 E3.54492
G1 X141.033 Y163.358 E0.01609
G1 X57.294 Y79.620 E3.56768
G1 X57.294 Y79.086 E0.01609
G1 X141.567 Y163.358 E3.59043
G1 X142.101 Y163.358 E0.01609
G1 X57.294 Y78.552 E3.61319
G1 X57.294 Y78.018 E0.01609
G1 X142.635 Y163.358 E3.63594
G1 X143.169 Y163.358 E0.01609
G1 X57.294 Y77.484 E3.65869
G1 X57.294 Y76.950 E0.01609
G1 X143.703 Y163.358 E3.68145
G1 X144.237 Y163.358 E0.01609
G1 X57.294 Y76.416 E3.70420
G1 X57.294 Y75.881 E0.01609
G1 X144.771 Y163.358 E3.72695
G1 X145.305 Y163.358 E0.01609
G1 X57.294 Y75.347 E3.74971
G1 X57.294 Y74.813 E0.01609
G1 X145.839 Y163.358 E3.77246
G1 X146.373 Y163.358 E0.01609
G1 X57.294 Y74.279 E3.79522
G1 X57.294 Y73.745 E0.01609
G1 X146.907 Y163.358 E3.81797
G1 X147.441 Y163.358 E0.01609
G1 X57.294 Y73.211 E3.84072
G1 X57.294 Y72.677 E0.01609
G1 X147.975 Y163.358 E3.86348
G1 X148.509 Y163.358 E0.01609
G1 X57.294 Y72.143 E3.88623
G1 X57.294 Y71.609 E0.01609
G1 X149.044 Y163.358 E3.90898
G1 X149.578 Y163.358 E0.01609
G1 X57.294 Y71.075 E3.93174
G1 X57.294 Y70.541 E0.01609
G1 X150.112 Y163.358 E3.95449
G1 X150.646 Y163.358 E0.01609
G1 X57.294 Y70.007 E3.97725
G1 X57.294 Y69.473 E0.01609
G1 X151.180 Y163.358 E4.00000
G1 X151.714 Y163.358 E0.01609
G1 X57.294 Y68.939 E4.02275
G1 X57.294 Y68.405 E0.01609
G1 X152.248 Y163.358 E4.04551
G1 X152.782 Y163.358 E0.01609
G1 X57.294 Y67.871 E4.06826
G1 X57.294 Y67.336 E0.01609
G1 X153.316 Y163.358 E4.09102
G1 X153.850 Y163.358 E0.01609
G1 X57.294 Y66.802 E4.11377
G1 X57.294 Y66.268 E0.01609
G1 X154.384 Y163.358 E4.13652
G1 X154.918 Y163.358 E0.01609
G1 X57.294 Y65.734 E4.15928
G1 X57.294 Y65.200 E0.01609
G1 X155.452 Y163.358 E4.18203
G1 X155.986 Y163.358 E0.01609
G1 X57.294 Y64.666 E4.20478
G1 X57.294 Y64.132 E0.01609
G1 X156.520 Y163.358 E4.22754
G1 X157.054 Y163.358 E0.01609
G1 X57.294 Y63.598 E4.25029
G1 X57.294 Y63.064 E0.01609
G1 X157.589 Y163.358 E4.27305
G1 X158.123 Y163.358 E0.01609
G1 X57.294 Y62.530 E4.29580
G1 X57.294 Y61.996 E0.01609
G1 X158.657 Y163.358 E4.31855
G1 X159.191 Y163.358 E0.01609
G1 X57.294 Y61.462 E4.34131
G1 X57.294 Y60.928 E0.01609
G1 X159.725 Y163.358 E4.36406
G1 X160.259 Y163.358 E0.01609
G1 X57.294 Y60.394 E4.38681
G1 X57.294 Y59.860 E0.01609
G1 X160.793 Y163.358 E4.40957
G1 X161.327 Y163.358 E0.01609
G1 X57.294 Y59.326 E4.43232
G1 X57.294 Y58.791 E0.01609
G1 X161.861 Y163.358 E4.45508
G1 X162.395 Y163.358 E0.01609
G1 X57.294 Y58.257 E4.47783
G1 X57.294 Y57.723 E0.01609
G1 X162.929 Y163.358 E4.50058
G1 X163.463 Y163.358 E0.01609
G1 X57.761 Y57.656 E4.50346
G1 X58.295 Y57.656 E0.01609
G1 X163.997 Y163.358 E4.50346
G1 X164.531 Y163.358 E0.01609
G1 X58.829 Y57.656 E4.50346
G1 X59.363 Y57.656 E0.01609
G1 X165.065 Y163.358 E4.50346
G1 X165.599 Y163.358 E0.01609
G1 X59.897 Y57.656 E4.50346
G1 X60.431 Y57.656 E0.01609
G1 X166.134 Y163.358 E4.50346
G1 X166.668 Y163.358 E0.01609
G1 X60.965 Y57.656 E4.50346
G1 X61.499 Y57.656 E0.01609
G1 X167.202 Y163.358 E4.50346
G1 X167.736 Y163.358 E0.01609
G1 X62.033 Y57.656 E4.50346
G1 X62.568 Y57.656 E0.01609
G1 X168.270 Y163.358 E4.50346
G1 X168.804 Y163.358 E0.01609
G1 X63.102 Y57.656 E4.50346
G1 X63.636 Y57.656 E0.01609
G1 X169.338 Y163.358 E4.50346
G1 X169.872 Y163.358 E0.01609
G1 X64.170 Y57.656 E4.50346
G1 X64.704 Y57.656 E0.01609
G1 X170.406 Y163.358 E4.50346
G1 X170.940 Y163.358 E0.01609
G1 X65.238 Y57.656 E4.50346
G1 X65.772 Y57.656 E0.01609
G1 X171.474 Y163.358 E4.50346
G1 X172.008 Y163.358 E0.01609
G1 X66.306 Y57.656 E4.50346
G1 X66.840 Y57.656 E0.01609
G1 X172.542 Y163.358 E4.50346
G1 X173.076 Y163.358 E0.01609
G1 X67.374 Y57.656 E4.50346
G1 X67.908 Y57.656 E0.01609
G1 X173.610 Y163.358 E4.50346
G1 X174.144 Y163.358 E0.01609
G1 X68.442 Y57.656 E4.50346
G1 X68.976 Y57.656 E0.01609
G1 X174.679 Y163.358 E4.50346
G1 X175.213 Y163.358 E0.01609
G1 X69.510 Y57.656 E4.50346
G1 X70.044 Y57.656 E0.01609
G1 X175.747 Y163.358 E4.50346
G1 X176.281 Y163.358 E0.01609
G1 X70.578 Y57.656 E4.50346
G1 X71.113 Y57.656 E0.01609
G1 X176.815 Y163.358 E4.50346
G1 X177.349 Y163.358 E0.01609
G1 X71.647 Y57.656 E4.50346
G1 X72.181 Y57.656 E0.01609
G1 X177.883 Y163.358 E4.50346
G1 X178.417 Y163.358 E0.01609
G1 X72.715 Y57.656 E4.50346
G1 X73.249 Y57.656 E0.01609
G1 X178.951 Y163.358 E4.50346
G1 X179.485 Y163.358 E0.01609
G1 X73.783 Y57.656 E4.50346
G1 X74.317 Y57.656 E0.01609
G1 X180.019 Y163.358 E4.50346
G1 X180.553 Y163.358 E0.01609
G1 X74.851 Y57.656 E4.50346
G1 X75.385 Y57.656 E0.01609
G1 X181.087 Y163.358 E4.50346
G1 X181.621 Y163.358 E0.01609
G1 X75.919 Y57.656 E4.50346
G1 X76.453 Y57.656 E0.01609
G1 X182.155 Y163.358 E4.50346
G1 X182.689 Y163.358 E0.01609
G1 X76.987 Y57.656 E4.50346
G1 X77.521 Y57.656 E0.01609
G1 X183.224 Y163.358 E4.50346
